assets/companies/dark/samsung.svg

<svg width="70" height="22" viewBox="0 0 70 22" fill="none" xmlns="http://www.w3.org/2000/svg">
<path d="M69.9568 5.23771C69.005 0.0640969 52.5834 -1.55043 33.2767 1.63143C25.1686 2.9684 17.8474 4.94035 12.146 7.15884C13.0218 7.177 13.6713 7.3671 14.066 7.73971C14.3745 8.03212 14.5304 8.43344 14.5304 8.93344V9.44664H12.6372V8.9935C12.6372 8.61595 12.3981 8.38195 11.9745 8.38195C11.6185 8.38195 11.3992 8.5341 11.3284 8.83377C11.3047 8.95223 11.3073 9.07407 11.3361 9.19153C11.5387 9.97536 14.3498 10.4622 14.6556 11.9087C14.6957 12.0948 14.75 12.4932 14.6643 13.0632C14.4889 14.2298 13.406 14.68 12.0275 14.68C10.1033 14.68 9.32162 13.8173 9.32162 12.6278L9.32301 12.0651H11.3525L11.3535 12.7661C11.3535 13.1602 11.6562 13.3777 12.0683 13.3777C12.4587 13.3777 12.6868 13.2288 12.7655 12.9245C12.8022 12.7846 12.8182 12.5783 12.7516 12.4206C12.3761 11.5288 9.75115 11.1123 9.42796 9.67041C9.35579 9.34631 9.34986 9.0704 9.40983 8.72156C9.44059 8.54863 9.49718 8.38072 9.57787 8.22288C3.25378 11.0226 -0.445701 14.1031 0.0431008 16.7628C0.995951 21.9371 17.4172 23.55 36.7235 20.3681C45.2102 18.9698 52.84 16.8764 58.6467 14.5305C58.5627 14.5345 58.4811 14.543 58.3939 14.543C57.0725 14.543 55.8927 14.0744 55.7703 12.7958C55.7487 12.5632 55.7449 12.4658 55.7442 12.3331L55.7449 9.39384C55.7449 9.2671 55.7606 9.04466 55.7756 8.92981C55.9321 7.69416 56.9641 7.18459 58.3946 7.18459C59.5016 7.18459 60.8588 7.48525 61.0081 8.9308C61.0279 9.11232 61.0258 9.30605 61.0255 9.36974V9.6473H59.1135V9.23311C59.1135 9.2242 59.1107 9.06941 59.0898 8.97271C59.0584 8.82519 58.9256 8.48327 58.381 8.48327C57.843 8.48327 57.7036 8.82585 57.6687 8.97304C57.6489 9.0539 57.6394 9.17007 57.6394 9.29879V12.4932C57.6377 12.6041 57.6436 12.6909 57.6555 12.7546C57.6649 12.8047 57.7615 13.245 58.3876 13.245C59.0093 13.245 59.1055 12.8047 59.1142 12.7546C59.1306 12.6681 59.1327 12.5651 59.132 12.4932V11.5034H58.3796V10.4374H61.0401V12.3338C61.0394 12.4628 61.0373 12.5582 61.0143 12.7958C60.9823 13.1311 60.8707 13.415 60.6957 13.6576C66.8538 10.8896 70.4393 7.85885 69.9568 5.23771ZM19.8954 14.4071L18.9268 8.17733H18.892L17.8987 14.4071H15.8573L17.2303 7.37172H20.5609L21.9255 14.4071H19.8954ZM29.7139 14.4071L29.669 8.29779H29.6362L28.4351 14.4071H26.5193L25.3241 8.29779H25.29L25.2464 14.4071H23.348L23.5126 7.37172H26.566L27.4551 12.5978H27.4986L28.3901 7.37172H31.4422L31.606 14.4071H29.7139ZM38.6536 13.0437C38.4493 14.4064 37.039 14.6447 36.0422 14.6447C34.3872 14.6447 33.3636 13.975 33.3636 12.6123L33.3646 12.0566H35.3697L35.3711 12.749C35.3711 13.1249 35.651 13.3549 36.0833 13.3549C36.4689 13.3549 36.6949 13.2084 36.7733 12.9074C36.8096 12.7671 36.8246 12.5625 36.7604 12.408C36.3909 11.5331 33.7865 11.1044 33.4699 9.68493C33.3974 9.36314 33.3921 9.08987 33.4518 8.74466C33.6721 7.45786 34.9767 7.19053 36.0269 7.19053C36.9661 7.19053 37.6498 7.38459 38.0598 7.77271C38.3656 8.06248 38.5204 8.46017 38.5204 8.95489V9.46248H36.6454V9.01463C36.6454 8.63113 36.394 8.40934 35.9899 8.40934C35.6315 8.40934 35.4146 8.56017 35.3435 8.85687C35.3204 8.97411 35.3235 9.09463 35.3526 9.21067C35.5534 9.99087 38.3398 10.4678 38.6449 11.9008C38.6842 12.0836 38.7383 12.476 38.6536 13.0437ZM45.5979 12.4044C45.6007 12.5364 45.5871 12.8001 45.5794 12.8678C45.4651 14.0269 44.5893 14.616 42.9831 14.616C41.3706 14.616 40.4941 14.0269 40.3804 12.8678C40.3675 12.7141 40.3614 12.5599 40.3619 12.4057V7.37007H42.2802V12.5645C42.2781 12.6806 42.2844 12.7665 42.2966 12.8262C42.3203 12.9417 42.4416 13.3166 42.9831 13.3166C43.5228 13.3166 43.6441 12.9414 43.6695 12.8275C43.6803 12.7661 43.687 12.676 43.687 12.5641V7.37007H45.5979V12.4044ZM53.8626 14.3354H51.1933L49.4016 8.76281H49.3716L49.471 14.3354H47.6106V7.37172H50.3918L52.0478 12.7249H52.0866L51.9886 7.37172H53.8626V14.3354Z" fill="#9A9CAC"/>
</svg>

<svg xmlns="http://www.w3.org/2000/svg" width="70" height="22" fill="none" viewBox="0 0 70 22"><path fill="#9A9CAC" d="M69.957 5.238C69.005.064 52.583-1.55 33.277 1.63c-8.108 1.337-15.43 3.31-21.131 5.528.876.018 1.525.208 1.92.58.308.293.464.694.464 1.194v.514h-1.893v-.453c0-.378-.239-.612-.662-.612-.357 0-.576.152-.647.452a.8.8 0 0 0 .008.358c.203.783 3.014 1.27 3.32 2.717.04.186.094.584.008 1.154-.175 1.167-1.258 1.617-2.636 1.617-1.925 0-2.706-.863-2.706-2.052l.001-.563h2.03v.701c0 .394.303.612.715.612.39 0 .619-.15.697-.453.037-.14.053-.347-.013-.504-.376-.892-3-1.309-3.324-2.75a2.3 2.3 0 0 1-.018-.95q.046-.26.168-.498c-6.324 2.8-10.024 5.88-9.535 8.54.953 5.174 17.374 6.787 36.68 3.605 8.487-1.398 16.117-3.492 21.924-5.837-.084.003-.166.012-.253.012-1.322 0-2.501-.469-2.624-1.747a5 5 0 0 1-.026-.463v-2.94c0-.126.017-.348.032-.463.156-1.236 1.188-1.745 2.619-1.745 1.107 0 2.464.3 2.613 1.746.02.181.018.375.017.439v.277h-1.911v-.414c0-.009-.003-.164-.024-.26-.032-.148-.164-.49-.709-.49-.538 0-.677.343-.712.49-.02.08-.03.197-.03.326v3.194q-.001.166.017.262c.009.05.105.49.732.49.621 0 .718-.44.726-.49.017-.087.019-.19.018-.262v-.99h-.752v-1.066h2.66v1.897c0 .129-.003.224-.026.462a1.7 1.7 0 0 1-.318.862c6.158-2.768 9.743-5.8 9.26-8.42m-50.062 9.17-.968-6.23h-.035l-.993 6.23h-2.042l1.373-7.036h3.33l1.366 7.035zm9.819 0-.045-6.11h-.033l-1.2 6.11h-1.917l-1.195-6.11h-.034l-.044 6.11h-1.898l.165-7.036h3.053l.89 5.226h.043l.891-5.226h3.052l.164 7.035zm8.94-1.364c-.205 1.362-1.615 1.6-2.612 1.6-1.655 0-2.678-.669-2.678-2.032v-.555h2.006l.001.692c0 .376.28.606.712.606.386 0 .612-.147.69-.448.037-.14.052-.344-.013-.499-.37-.875-2.974-1.304-3.29-2.723a2.25 2.25 0 0 1-.018-.94c.22-1.287 1.525-1.554 2.575-1.554.94 0 1.623.194 2.033.582.306.29.46.687.46 1.182v.507h-1.875v-.447c0-.384-.251-.606-.655-.606q-.538.001-.647.448a.8.8 0 0 0 .01.354c.2.78 2.987 1.257 3.292 2.69.04.183.093.575.009 1.143m6.944-.64c.003.132-.01.396-.019.464-.114 1.159-.99 1.748-2.596 1.748-1.612 0-2.489-.59-2.603-1.748a5 5 0 0 1-.018-.462V7.37h1.918v5.195q-.003.173.017.261c.023.116.145.49.686.49.54 0 .661-.375.687-.489.01-.06.017-.151.017-.263V7.37h1.91zm8.265 1.931h-2.67l-1.791-5.572h-.03l.099 5.572h-1.86V7.372h2.78l1.657 5.353h.039l-.098-5.353h1.874z"/></svg>
